svg/battery_large_reset_outline.svg

<svg width="24" height="24" viewBox="0 0 24 24" xmlns="http://www.w3.org/2000/svg">
<path d="M6 10H14V11.5H7.5V14H8.75L6.75 16.5L4.75 14H6V10Z" />
<path d="M18 16V12H19.25L17.25 9.5L15.25 12H16.5V14.5H10V16H18Z" />
<path fill-rule="evenodd" clip-rule="evenodd" d="M18.5 4.8C18.5 4.51997 18.5 4.37996 18.4455 4.273C18.3976 4.17892 18.3211 4.10243 18.227 4.0545C18.12 4 17.98 4 17.7 4H15.3C15.02 4 14.88 4 14.773 4.0545C14.6789 4.10243 14.6024 4.17892 14.5545 4.273C14.5 4.37996 14.5 4.51997 14.5 4.8V6H9.5V4.8C9.5 4.51997 9.5 4.37996 9.4455 4.273C9.39757 4.17892 9.32108 4.10243 9.227 4.0545C9.12004 4 8.98003 4 8.7 4H6.3C6.01997 4 5.87996 4 5.773 4.0545C5.67892 4.10243 5.60243 4.17892 5.5545 4.273C5.5 4.37996 5.5 4.51997 5.5 4.8V6H4C2.89 6 2 6.89 2 8V18C2 19.11 2.89 20 4 20H20C21.11 20 22 19.11 22 18L21.99 8C21.99 6.89 21.11 6 20 6H18.5V4.8ZM4 18V8L19.99 8.002L20 18H4Z" />
</svg>

<svg width="24" height="24" viewBox="0 0 24 24" xmlns="http://www.w3.org/2000/svg"><path d="M6 10h8v1.5H7.5V14h1.25l-2 2.5-2-2.5H6v-4zM18 16v-4h1.25l-2-2.5-2 2.5h1.25v2.5H10V16h8z"/><path fill-rule="evenodd" clip-rule="evenodd" d="M18.5 4.8c0-.28 0-.42-.055-.527a.5.5 0 0 0-.218-.218C18.12 4 17.98 4 17.7 4h-2.4c-.28 0-.42 0-.527.054a.5.5 0 0 0-.218.219c-.055.107-.055.247-.055.527V6h-5V4.8c0-.28 0-.42-.055-.527a.5.5 0 0 0-.218-.218C9.12 4 8.98 4 8.7 4H6.3c-.28 0-.42 0-.527.054a.5.5 0 0 0-.218.219C5.5 4.38 5.5 4.52 5.5 4.8V6H4c-1.11 0-2 .89-2 2v10c0 1.11.89 2 2 2h16c1.11 0 2-.89 2-2l-.01-10c0-1.11-.88-2-1.99-2h-1.5V4.8zM4 18V8l15.99.002L20 18H4z"/></svg>
